X: 34840
T: Roaring Barmaid, The
R: jig
M: 6/8
K: Gmajor
~G3 EGD|~G3 EGD|~G3 ~B3|~d3 cBA|
~G3 EGD|~G3 EGD|GAB deg|deg edB|
~G3 EGD|~G3 EGD|GGG BGG|dGG BAB|
~G3 EGD|~G3 EGD|GAB deg|deg edB||
deg b2 (b|b)ag deg|b2(b b)ag|edB deg|
b2(b b)ag|agg bgg|agg deg|deg edB|
deg b2 (b|b)ag deg|b2(b b)ag|edB deg|
b2(b b)ag|agg bgg|agg de(g|g)fe dBA||

